svgs/regular/cards-blank.svg

<svg xmlns="http://www.w3.org/2000/svg" viewBox="0 0 640 512"><!--! Font Awesome Pro 6.1.1 by @fontawesome - https://fontawesome.com License - https://fontawesome.com/license (Commercial License) Copyright 2022 Fonticons, Inc. --><path d="M7.468 194.9C-7.906 168.2 1.218 134.2 27.85 118.8L220.7 7.468C247.3-7.906 281.4 1.218 296.8 27.85L463.8 317.1C479.1 343.8 470 377.8 443.4 393.2L250.5 504.5C223.9 519.9 189.9 510.8 174.5 484.2L7.468 194.9zM49.04 170.9L216.1 460.2C218.2 463.8 222.9 465.1 226.5 462.1L419.4 351.6C423.1 349.5 424.3 344.8 422.2 341.1L255.2 51.85C253.1 48.18 248.4 46.92 244.7 49.04L51.85 160.4C48.18 162.5 46.92 167.2 49.04 170.9H49.04zM491.5 301.1L354.7 64.25C356.5 64.08 358.2 63.1 360 63.1H584C614.9 63.1 640 89.07 640 119.1V456C640 486.9 614.9 512 584 512H360C346.4 512 333.8 507.1 324.1 498.1L459.4 420.9C501.3 396.7 515.7 343.1 491.5 301.1L491.5 301.1z"/></svg>

<svg xmlns="http://www.w3.org/2000/svg" viewBox="0 0 640 512"><!--! Font Awesome Pro 6.4.2 by @fontawesome - https://fontawesome.com License - https://fontawesome.com/license (Commercial License) Copyright 2023 Fonticons, Inc. --><path d="M51.8 160.4c-3.7 2.1-4.9 6.8-2.8 10.5l167 289.3c2.1 3.7 6.8 4.9 10.5 2.8L419.4 351.6c3.7-2.1 4.9-6.8 2.8-10.5L255.2 51.8c-2.1-3.7-6.8-4.9-10.5-2.8L51.8 160.4zM7.5 194.9c-15.4-26.6-6.3-60.7 20.4-76.1L220.7 7.5c26.6-15.4 60.7-6.3 76.1 20.4l167 289.3c15.4 26.6 6.2 60.7-20.4 76.1L250.5 504.5c-26.6 15.4-60.7 6.2-76.1-20.4L7.5 194.9zm451.9 226c41.9-24.2 56.3-77.8 32.1-119.8L354.7 64.2c1.7-.2 3.5-.2 5.3-.2H584c30.9 0 56 25.1 56 56V456c0 30.9-25.1 56-56 56H360c-13.7 0-26.2-4.9-35.9-13l135.3-78.1z"/></svg>
